public/images/header-new-phone.svg

<svg width="20" height="20" viewBox="0 0 20 20" fill="none" xmlns="http://www.w3.org/2000/svg">
<g id="Frame 1968">
<path id="Vector" d="M18.5814 13.0763C18.5814 13.0763 16.744 12.1763 15.5935 11.5763C14.2915 10.9058 12.7615 12.1613 12.0415 12.8753C10.921 12.4449 9.89754 11.7952 9.03109 10.9643C8.20007 10.098 7.5504 9.07458 7.12009 7.95388C7.8341 7.23242 9.08656 5.70391 8.4191 4.40195C7.82658 3.24997 6.91914 1.41399 6.91914 1.41252C6.7918 1.15982 6.53313 1.00028 6.25012 1H4.75017C2.56573 1.37729 0.977461 3.2833 1.00024 5.49994C1.00024 7.85488 3.81868 12.3789 5.7192 14.2808C7.61972 16.1827 12.1436 18.9998 14.5001 18.9998C16.7167 19.0225 18.6227 17.4342 19 15.2498V13.7499C19.0002 13.4638 18.8379 13.2026 18.5814 13.0763Z" fill="#0067A0"/>
</g>
</svg>

<svg width="20" height="20" fill="none" xmlns="http://www.w3.org/2000/svg"><path d="M18.581 13.076s-1.837-.9-2.987-1.5c-1.303-.67-2.832.585-3.553 1.3a9.025 9.025 0 01-3.01-1.912 9.018 9.018 0 01-1.91-3.01c.713-.722 1.966-2.25 1.298-3.552-.592-1.152-1.5-2.988-1.5-2.99A.75.75 0 006.25 1h-1.5A4.52 4.52 0 001 5.5c0 2.355 2.819 6.879 4.72 8.78C7.62 16.184 12.143 19 14.5 19a4.52 4.52 0 004.5-3.75v-1.5a.75.75 0 00-.419-.674z" fill="#0067A0"/></svg>
